assets/logos/icons/file-plist.svg

<svg height="24" viewBox="0 0 24 24" width="24" xmlns="http://www.w3.org/2000/svg"><path d="m18.4705882 6h-2.0588235v-2h-12.35294122v16h12.35294122v-2h2.0588235v2c0 1.1-.9264706 2-2.0588235 2h-12.35294122c-1.13235294 0-2.05882353-.9-2.05882353-2v-16c0-1.1.92647059-2 2.05882353-2h12.35294122c1.1323529 0 2.0588235.9 2.0588235 2zm-12.0305882 4.15h1.7325c.8525 0 1.43.5775 1.43 1.3475s-.5775 1.3475-1.43 1.3475h-.6875v1.155h-1.045zm1.6775.935h-.6325v.825h.6325c.2475 0 .44-.1925.44-.4125s-.1925-.4125-.44-.4125zm4.945 2.915h-2.75v-3.85h1.045v2.915h1.705zm.6 0v-3.85h1.045v3.85zm3.57-1.1825c0-.5225-1.7875-.2475-1.7875-1.595 0-.605.5775-1.1825 1.4575-1.1825.935 0 1.3475.55 1.3475.55l-.605.6325s-.253-.3025-.6325-.3025c-.2475 0-.4125.165-.4125.33 0 .5225 1.7875.2475 1.7875 1.595 0 .6875-.5775 1.265-1.54 1.265-1.0175 0-1.54-.66-1.54-.66l.605-.6325s.33.4125.825.4125c.3025 0 .495-.1925.495-.4125zm1.48-2.6675h3.19v.935h-1.0725v2.915h-1.045v-2.915h-1.0725z" fill="#492f5c" fill-rule="evenodd"/></svg>

<svg xmlns="http://www.w3.org/2000/svg" xmlns:xlink="http://www.w3.org/1999/xlink" width="24" height="24" viewBox="0 0 24 24">
  <defs>
    <path id="file-plist-a" d="M18.4705882,6 L16.4117647,6 L16.4117647,4 L4.05882348,4 L4.05882348,20 L16.4117647,20 L16.4117647,18 L18.4705882,18 L18.4705882,20 C18.4705882,21.1 17.5441176,22 16.4117647,22 L4.05882348,22 C2.92647054,22 1.99999995,21.1 1.99999995,20 L1.99999995,4 C1.99999995,2.9 2.92647054,2 4.05882348,2 L16.4117647,2 C17.5441176,2 18.4705882,2.9 18.4705882,4 L18.4705882,6 Z M6.44,10.15 L8.1725,10.15 C9.025,10.15 9.6025,10.7275 9.6025,11.4975 C9.6025,12.2675 9.025,12.845 8.1725,12.845 L7.485,12.845 L7.485,14 L6.44,14 L6.44,10.15 Z M8.1175,11.085 L7.485,11.085 L7.485,11.91 L8.1175,11.91 C8.365,11.91 8.5575,11.7175 8.5575,11.4975 C8.5575,11.2775 8.365,11.085 8.1175,11.085 Z M13.0625,14 L10.3125,14 L10.3125,10.15 L11.3575,10.15 L11.3575,13.065 L13.0625,13.065 L13.0625,14 Z M13.6625,14 L13.6625,10.15 L14.7075,10.15 L14.7075,14 L13.6625,14 Z M17.2325,12.8175 C17.2325,12.295 15.445,12.57 15.445,11.2225 C15.445,10.6175 16.0225,10.04 16.9025,10.04 C17.8375,10.04 18.25,10.59 18.25,10.59 L17.645,11.2225 C17.645,11.2225 17.392,10.92 17.0125,10.92 C16.765,10.92 16.6,11.085 16.6,11.25 C16.6,11.7725 18.3875,11.4975 18.3875,12.845 C18.3875,13.5325 17.81,14.11 16.8475,14.11 C15.83,14.11 15.3075,13.45 15.3075,13.45 L15.9125,12.8175 C15.9125,12.8175 16.2425,13.23 16.7375,13.23 C17.04,13.23 17.2325,13.0375 17.2325,12.8175 Z M18.7125,10.15 L21.9025,10.15 L21.9025,11.085 L20.83,11.085 L20.83,14 L19.785,14 L19.785,11.085 L18.7125,11.085 L18.7125,10.15 Z"/>
  </defs>
  <use fill="#492F5C" fill-rule="evenodd" xlink:href="#file-plist-a"/>
</svg>
